z_dist/img/icons/crypto/binance-usd-BUSD.svg

<svg width="64" height="64" viewBox="0 0 64 64" fill="none" xmlns="http://www.w3.org/2000/svg">
<rect width="64" height="64" rx="4" fill="white"/>
<path d="M31.9366 10.6667L37.2064 16.0636L23.9366 29.3334L18.6667 24.0636L31.9366 10.6667Z" fill="#F0B90B" stroke="#F0B90B"/>
<path d="M39.9366 18.6667L45.2064 24.0636L23.9366 45.3334L18.6667 40.0636L39.9366 18.6667Z" fill="#F0B90B" stroke="#F0B90B"/>
<path d="M15.9366 26.6667L21.2064 32.0636L15.9366 37.3334L10.6667 32.0636L15.9366 26.6667Z" fill="#F0B90B" stroke="#F0B90B"/>
<path d="M47.9366 26.6667L53.2064 32.0636L31.9366 53.3334L26.6667 48.0636L47.9366 26.6667Z" fill="#F0B90B" stroke="#F0B90B"/>
</svg>

<svg width="64" height="64" fill="none" xmlns="http://www.w3.org/2000/svg"><rect width="64" height="64" rx="4" fill="#fff"/><path d="M31.937 10.667l5.27 5.397-13.27 13.27-5.27-5.27 13.27-13.397zm8 8l5.27 5.397-21.27 21.27-5.27-5.27 21.27-21.397zm-24 8l5.27 5.397-5.27 5.27-5.27-5.27 5.27-5.397zm32 0l5.27 5.397-21.27 21.27-5.27-5.27 21.27-21.397z" fill="#F0B90B" stroke="#F0B90B"/></svg>
